X:38
T:Kirk's Hornpipe 
C:Joe Buchanan's Scottish Tome - Page 145.1
I:145 1
R:Hornpipe
Z:Carl Allison
D:start of hornpipes
L:1/8
M:C
K:D
d/A/ | F/G/A/F/ Dd | c/d/e/c/ Ae/f/ | g/f/e/d/ Be/d/ | cA AA/G/ |
FGAF Dd | c/d/e/c/ Ae/f/ | ge/f/ g/e/c/e/ | d2 d :|
f/g/ | a/f/d/f/ aa | g/e/c/e/ gg | g/f/e/d/ Be/d/ | cA [1Af/g/ | 
%%sep 1 15 575
%"@-75,29|"
"@692,29|"
%"@-40,30 1"
%"@705,30 1"
Aa/f/d/f/ aa | g/e/c/e/ gg | g/f/e/d/ B/e/c/A/ | d2 d :|
%%sep 1 15 575
"@-45,35|"
"@720,35|"
"@-40,30 2"
"@705,30 2"
A/G/ | F/G/A/F/ Dd | c/d/e/c/ Ae/f/ | g/f/e/d/ B/e/c/A/ | d2 d |]

